images/29679.svg

<?xml version="1.0" encoding="UTF-8"?>
<svg xmlns="http://www.w3.org/2000/svg" xmlns:xlink="http://www.w3.org/1999/xlink" width="300pt" height="300pt" viewBox="0 0 300 300" version="1.1">
<defs>
<g>
<symbol overflow="visible" id="glyph0-0">
<path style="stroke:none;" d="M 0.59375 2.125 L 0.59375 -8.46875 L 6.59375 -8.46875 L 6.59375 2.125 Z M 1.265625 1.453125 L 5.9375 1.453125 L 5.9375 -7.78125 L 1.265625 -7.78125 Z M 1.265625 1.453125 "/>
</symbol>
<symbol overflow="visible" id="glyph0-1">
<path style="stroke:none;" d="M 1.171875 -8.75 L 6.203125 -8.75 L 6.203125 -7.75 L 2.359375 -7.75 L 2.359375 -5.171875 L 5.828125 -5.171875 L 5.828125 -4.171875 L 2.359375 -4.171875 L 2.359375 0 L 1.171875 0 Z M 1.171875 -8.75 "/>
</symbol>
<symbol overflow="visible" id="glyph0-2">
<path style="stroke:none;" d="M 1.171875 -8.75 L 2.765625 -8.75 L 6.65625 -1.4375 L 6.65625 -8.75 L 7.796875 -8.75 L 7.796875 0 L 6.203125 0 L 2.328125 -7.3125 L 2.328125 0 L 1.171875 0 Z M 1.171875 -8.75 "/>
</symbol>
<symbol overflow="visible" id="glyph0-3">
<path style="stroke:none;" d="M 4.734375 -7.953125 C 3.867188 -7.953125 3.179688 -7.628906 2.671875 -6.984375 C 2.171875 -6.347656 1.921875 -5.472656 1.921875 -4.359375 C 1.921875 -3.265625 2.171875 -2.394531 2.671875 -1.75 C 3.179688 -1.113281 3.867188 -0.796875 4.734375 -0.796875 C 5.585938 -0.796875 6.265625 -1.113281 6.765625 -1.75 C 7.273438 -2.394531 7.53125 -3.265625 7.53125 -4.359375 C 7.53125 -5.472656 7.273438 -6.347656 6.765625 -6.984375 C 6.265625 -7.628906 5.585938 -7.953125 4.734375 -7.953125 Z M 4.734375 -8.90625 C 5.953125 -8.90625 6.925781 -8.492188 7.65625 -7.671875 C 8.394531 -6.847656 8.765625 -5.742188 8.765625 -4.359375 C 8.765625 -2.984375 8.394531 -1.882812 7.65625 -1.0625 C 6.925781 -0.238281 5.953125 0.171875 4.734375 0.171875 C 3.503906 0.171875 2.519531 -0.238281 1.78125 -1.0625 C 1.039062 -1.882812 0.671875 -2.984375 0.671875 -4.359375 C 0.671875 -5.742188 1.039062 -6.847656 1.78125 -7.671875 C 2.519531 -8.492188 3.503906 -8.90625 4.734375 -8.90625 Z M 4.734375 -8.90625 "/>
</symbol>
<symbol overflow="visible" id="glyph0-4">
<path style="stroke:none;" d="M 1.171875 -8.75 L 2.359375 -8.75 L 2.359375 -5.15625 L 6.65625 -5.15625 L 6.65625 -8.75 L 7.84375 -8.75 L 7.84375 0 L 6.65625 0 L 6.65625 -4.171875 L 2.359375 -4.171875 L 2.359375 0 L 1.171875 0 Z M 1.171875 -8.75 "/>
</symbol>
</g>
</defs>
<g id="surface20121">
<rect x="0" y="0" width="300" height="300" style="fill:rgb(100%,100%,100%);fill-opacity:1;stroke:none;"/>
<path style="fill:none;stroke-width:1.2;stroke-linecap:butt;stroke-linejoin:miter;stroke:rgb(20%,80%,80%);stroke-opacity:1;stroke-miterlimit:10;" d="M 36.855469 120.066406 L 43.875 133.152344 "/>
<path style="fill:none;stroke-width:1.2;stroke-linecap:butt;stroke-linejoin:miter;stroke:rgb(0%,0%,0%);stroke-opacity:1;stroke-miterlimit:10;" d="M 43.875 133.152344 L 50.894531 146.238281 "/>
<path style=" stroke:none;fill-rule:nonzero;fill:rgb(100%,100%,100%);fill-opacity:1;" d="M 29.855469 113.066406 L 36.855469 113.066406 L 36.855469 127.066406 L 29.855469 127.066406 Z M 29.855469 113.066406 "/>
<g style="fill:rgb(20%,80%,80%);fill-opacity:1;">
  <use xlink:href="#glyph0-1" x="29.855469" y="124.205078"/>
</g>
<path style="fill:none;stroke-width:1.2;stroke-linecap:butt;stroke-linejoin:miter;stroke:rgb(0%,0%,0%);stroke-opacity:1;stroke-miterlimit:10;" d="M 50.894531 146.238281 L 35.25 171.476562 "/>
<path style="fill:none;stroke-width:1.2;stroke-linecap:butt;stroke-linejoin:miter;stroke:rgb(0%,0%,0%);stroke-opacity:1;stroke-miterlimit:10;" d="M 55.269531 152.441406 L 42.753906 172.632812 "/>
<path style="fill:none;stroke-width:1.2;stroke-linecap:butt;stroke-linejoin:miter;stroke:rgb(0%,0%,0%);stroke-opacity:1;stroke-miterlimit:10;" d="M 80.574219 147.164062 L 50.894531 146.238281 "/>
<path style="fill:none;stroke-width:1.2;stroke-linecap:butt;stroke-linejoin:miter;stroke:rgb(0%,0%,0%);stroke-opacity:1;stroke-miterlimit:10;" d="M 35.25 171.476562 L 49.289062 197.644531 "/>
<path style="fill:none;stroke-width:1.2;stroke-linecap:butt;stroke-linejoin:miter;stroke:rgb(0%,0%,0%);stroke-opacity:1;stroke-miterlimit:10;" d="M 49.289062 197.644531 L 78.96875 198.574219 "/>
<path style="fill:none;stroke-width:1.2;stroke-linecap:butt;stroke-linejoin:miter;stroke:rgb(0%,0%,0%);stroke-opacity:1;stroke-miterlimit:10;" d="M 52.472656 190.753906 L 76.21875 191.496094 "/>
<path style="fill:none;stroke-width:1.2;stroke-linecap:butt;stroke-linejoin:miter;stroke:rgb(0%,0%,0%);stroke-opacity:1;stroke-miterlimit:10;" d="M 78.96875 198.574219 L 85.988281 211.65625 "/>
<path style="fill:none;stroke-width:1.2;stroke-linecap:butt;stroke-linejoin:miter;stroke:rgb(20%,80%,80%);stroke-opacity:1;stroke-miterlimit:10;" d="M 85.988281 211.65625 L 93.007812 224.742188 "/>
<path style="fill:none;stroke-width:1.2;stroke-linecap:butt;stroke-linejoin:miter;stroke:rgb(0%,0%,0%);stroke-opacity:1;stroke-miterlimit:10;" d="M 78.96875 198.574219 L 94.613281 173.332031 "/>
<path style=" stroke:none;fill-rule:nonzero;fill:rgb(100%,100%,100%);fill-opacity:1;" d="M 90.007812 217.742188 L 97.007812 217.742188 L 97.007812 231.742188 L 90.007812 231.742188 Z M 90.007812 217.742188 "/>
<g style="fill:rgb(20%,80%,80%);fill-opacity:1;">
  <use xlink:href="#glyph0-1" x="90.007812" y="228.880859"/>
</g>
<path style="fill:none;stroke-width:1.2;stroke-linecap:butt;stroke-linejoin:miter;stroke:rgb(0%,0%,0%);stroke-opacity:1;stroke-miterlimit:10;" d="M 94.613281 173.332031 L 80.574219 147.164062 "/>
<path style="fill:none;stroke-width:1.2;stroke-linecap:butt;stroke-linejoin:miter;stroke:rgb(0%,0%,0%);stroke-opacity:1;stroke-miterlimit:10;" d="M 87.050781 174.019531 L 75.820312 153.082031 "/>
<path style="fill:none;stroke-width:1.2;stroke-linecap:butt;stroke-linejoin:miter;stroke:rgb(0%,0%,0%);stroke-opacity:1;stroke-miterlimit:10;" d="M 80.574219 147.164062 L 96.21875 121.921875 "/>
<path style="fill:none;stroke-width:1.2;stroke-linecap:butt;stroke-linejoin:miter;stroke:rgb(0%,0%,0%);stroke-opacity:1;stroke-miterlimit:10;" d="M 96.21875 121.921875 L 90.605469 108.175781 "/>
<path style="fill:none;stroke-width:1.2;stroke-linecap:butt;stroke-linejoin:miter;stroke:rgb(0%,0%,100%);stroke-opacity:1;stroke-miterlimit:10;" d="M 90.605469 108.175781 L 84.992188 94.429688 "/>
<path style="fill:none;stroke-width:1.2;stroke-linecap:butt;stroke-linejoin:miter;stroke:rgb(0%,0%,0%);stroke-opacity:1;stroke-miterlimit:10;" d="M 125.835938 119.742188 L 96.21875 121.921875 "/>
<path style="fill:none;stroke-width:1.2;stroke-linecap:butt;stroke-linejoin:miter;stroke:rgb(0%,0%,0%);stroke-opacity:1;stroke-miterlimit:10;" d="M 122.359375 112.992188 L 98.667969 114.734375 "/>
<path style="fill:none;stroke-width:1.2;stroke-linecap:butt;stroke-linejoin:miter;stroke:rgb(0%,0%,100%);stroke-opacity:1;stroke-miterlimit:10;" d="M 84.992188 94.429688 L 96.332031 84.84375 "/>
<path style="fill:none;stroke-width:1.2;stroke-linecap:butt;stroke-linejoin:miter;stroke:rgb(0%,0%,0%);stroke-opacity:1;stroke-miterlimit:10;" d="M 96.332031 84.84375 L 107.671875 75.257812 "/>
<path style="fill:none;stroke-width:1.2;stroke-linecap:butt;stroke-linejoin:miter;stroke:rgb(0%,0%,100%);stroke-opacity:1;stroke-miterlimit:10;" d="M 91.773438 97.847656 L 100.84375 90.179688 "/>
<path style="fill:none;stroke-width:1.2;stroke-linecap:butt;stroke-linejoin:miter;stroke:rgb(0%,0%,0%);stroke-opacity:1;stroke-miterlimit:10;" d="M 100.84375 90.179688 L 109.914062 82.511719 "/>
<path style=" stroke:none;fill-rule:nonzero;fill:rgb(100%,100%,100%);fill-opacity:1;" d="M 80.992188 87.429688 L 89.992188 87.429688 L 89.992188 101.429688 L 80.992188 101.429688 Z M 80.992188 87.429688 "/>
<g style="fill:rgb(0%,0%,100%);fill-opacity:1;">
  <use xlink:href="#glyph0-2" x="80.992188" y="98.568359"/>
</g>
<path style="fill:none;stroke-width:1.2;stroke-linecap:butt;stroke-linejoin:miter;stroke:rgb(0%,0%,0%);stroke-opacity:1;stroke-miterlimit:10;" d="M 107.671875 75.257812 L 120.292969 83.078125 "/>
<path style="fill:none;stroke-width:1.2;stroke-linecap:butt;stroke-linejoin:miter;stroke:rgb(100%,0%,0%);stroke-opacity:1;stroke-miterlimit:10;" d="M 120.292969 83.078125 L 132.914062 90.902344 "/>
<path style="fill:none;stroke-width:1.2;stroke-linecap:butt;stroke-linejoin:miter;stroke:rgb(100%,0%,0%);stroke-opacity:1;stroke-miterlimit:10;" d="M 132.914062 90.902344 L 129.375 105.320312 "/>
<path style="fill:none;stroke-width:1.2;stroke-linecap:butt;stroke-linejoin:miter;stroke:rgb(0%,0%,0%);stroke-opacity:1;stroke-miterlimit:10;" d="M 129.375 105.320312 L 125.835938 119.742188 "/>
<path style=" stroke:none;fill-rule:nonzero;fill:rgb(100%,100%,100%);fill-opacity:1;" d="M 127.914062 83.902344 L 137.914062 83.902344 L 137.914062 97.902344 L 127.914062 97.902344 Z M 127.914062 83.902344 "/>
<g style="fill:rgb(100%,0%,0%);fill-opacity:1;">
  <use xlink:href="#glyph0-3" x="127.914062" y="95.041016"/>
</g>
<path style="fill:none;stroke-width:1.2;stroke-linecap:butt;stroke-linejoin:miter;stroke:rgb(0%,0%,0%);stroke-opacity:1;stroke-miterlimit:10;" d="M 125.835938 119.742188 L 145.007812 142.417969 "/>
<path style="fill:none;stroke-width:1.2;stroke-linecap:butt;stroke-linejoin:miter;stroke:rgb(0%,0%,0%);stroke-opacity:1;stroke-miterlimit:10;" d="M 145.007812 142.417969 L 134.953125 170.363281 "/>
<path style="fill:none;stroke-width:1.2;stroke-linecap:butt;stroke-linejoin:miter;stroke:rgb(0%,0%,0%);stroke-opacity:1;stroke-miterlimit:10;" d="M 145.007812 142.417969 L 174.230469 137.15625 "/>
<path style="fill:none;stroke-width:1.2;stroke-linecap:butt;stroke-linejoin:miter;stroke:rgb(0%,0%,0%);stroke-opacity:1;stroke-miterlimit:10;" d="M 149.167969 148.769531 L 172.546875 144.558594 "/>
<path style="fill:none;stroke-width:1.2;stroke-linecap:butt;stroke-linejoin:miter;stroke:rgb(0%,0%,0%);stroke-opacity:1;stroke-miterlimit:10;" d="M 134.953125 170.363281 L 154.125 193.039062 "/>
<path style="fill:none;stroke-width:1.2;stroke-linecap:butt;stroke-linejoin:miter;stroke:rgb(0%,0%,0%);stroke-opacity:1;stroke-miterlimit:10;" d="M 142.207031 168.117188 L 157.542969 186.261719 "/>
<path style="fill:none;stroke-width:1.2;stroke-linecap:butt;stroke-linejoin:miter;stroke:rgb(0%,0%,0%);stroke-opacity:1;stroke-miterlimit:10;" d="M 154.125 193.039062 L 183.351562 187.777344 "/>
<path style="fill:none;stroke-width:1.2;stroke-linecap:butt;stroke-linejoin:miter;stroke:rgb(0%,0%,0%);stroke-opacity:1;stroke-miterlimit:10;" d="M 183.351562 187.777344 L 188.378906 173.804688 "/>
<path style="fill:none;stroke-width:1.2;stroke-linecap:butt;stroke-linejoin:miter;stroke:rgb(0%,0%,100%);stroke-opacity:1;stroke-miterlimit:10;" d="M 188.378906 173.804688 L 193.402344 159.832031 "/>
<path style="fill:none;stroke-width:1.2;stroke-linecap:butt;stroke-linejoin:miter;stroke:rgb(0%,0%,100%);stroke-opacity:1;stroke-miterlimit:10;" d="M 206.816406 205.972656 L 195.085938 196.875 "/>
<path style="fill:none;stroke-width:1.2;stroke-linecap:butt;stroke-linejoin:miter;stroke:rgb(0%,0%,0%);stroke-opacity:1;stroke-miterlimit:10;" d="M 195.085938 196.875 L 183.351562 187.777344 "/>
<path style="fill:none;stroke-width:1.2;stroke-linecap:butt;stroke-linejoin:miter;stroke:rgb(0%,0%,100%);stroke-opacity:1;stroke-miterlimit:10;" d="M 208.753906 198.632812 L 199.367188 191.351562 "/>
<path style="fill:none;stroke-width:1.2;stroke-linecap:butt;stroke-linejoin:miter;stroke:rgb(0%,0%,0%);stroke-opacity:1;stroke-miterlimit:10;" d="M 199.367188 191.351562 L 189.980469 184.074219 "/>
<path style="fill:none;stroke-width:1.2;stroke-linecap:butt;stroke-linejoin:miter;stroke:rgb(0%,0%,100%);stroke-opacity:1;stroke-miterlimit:10;" d="M 193.402344 159.832031 L 183.816406 148.496094 "/>
<path style="fill:none;stroke-width:1.2;stroke-linecap:butt;stroke-linejoin:miter;stroke:rgb(0%,0%,0%);stroke-opacity:1;stroke-miterlimit:10;" d="M 183.816406 148.496094 L 174.230469 137.15625 "/>
<path style="fill:none;stroke-width:1.2;stroke-linecap:butt;stroke-linejoin:miter;stroke:rgb(0%,0%,100%);stroke-opacity:1;stroke-miterlimit:10;" d="M 193.402344 159.832031 L 208.246094 160.296875 "/>
<path style="fill:none;stroke-width:1.2;stroke-linecap:butt;stroke-linejoin:miter;stroke:rgb(0%,0%,0%);stroke-opacity:1;stroke-miterlimit:10;" d="M 208.246094 160.296875 L 223.085938 160.761719 "/>
<path style=" stroke:none;fill-rule:nonzero;fill:rgb(100%,100%,100%);fill-opacity:1;" d="M 189.402344 152.832031 L 198.402344 152.832031 L 198.402344 166.832031 L 189.402344 166.832031 Z M 189.402344 152.832031 "/>
<g style="fill:rgb(0%,0%,100%);fill-opacity:1;">
  <use xlink:href="#glyph0-2" x="189.402344" y="163.970703"/>
</g>
<path style="fill:none;stroke-width:1.2;stroke-linecap:butt;stroke-linejoin:miter;stroke:rgb(0%,0%,0%);stroke-opacity:1;stroke-miterlimit:10;" d="M 223.085938 160.761719 L 227.230469 175.019531 "/>
<path style="fill:none;stroke-width:1.2;stroke-linecap:butt;stroke-linejoin:miter;stroke:rgb(0%,0%,100%);stroke-opacity:1;stroke-miterlimit:10;" d="M 227.230469 175.019531 L 231.375 189.277344 "/>
<path style="fill:none;stroke-width:1.2;stroke-linecap:butt;stroke-linejoin:miter;stroke:rgb(0%,0%,0%);stroke-opacity:1;stroke-miterlimit:10;" d="M 217.207031 165.5625 L 220.519531 176.96875 "/>
<path style="fill:none;stroke-width:1.2;stroke-linecap:butt;stroke-linejoin:miter;stroke:rgb(0%,0%,100%);stroke-opacity:1;stroke-miterlimit:10;" d="M 220.519531 176.96875 L 223.835938 188.375 "/>
<path style="fill:none;stroke-width:1.2;stroke-linecap:butt;stroke-linejoin:miter;stroke:rgb(0%,0%,0%);stroke-opacity:1;stroke-miterlimit:10;" d="M 223.085938 160.761719 L 241.28125 137.292969 "/>
<path style="fill:none;stroke-width:1.2;stroke-linecap:butt;stroke-linejoin:miter;stroke:rgb(0%,0%,100%);stroke-opacity:1;stroke-miterlimit:10;" d="M 231.375 189.277344 L 206.816406 205.972656 "/>
<path style=" stroke:none;fill-rule:nonzero;fill:rgb(100%,100%,100%);fill-opacity:1;" d="M 227.375 182.277344 L 236.375 182.277344 L 236.375 196.277344 L 227.375 196.277344 Z M 227.375 182.277344 "/>
<g style="fill:rgb(0%,0%,100%);fill-opacity:1;">
  <use xlink:href="#glyph0-2" x="227.375" y="193.416016"/>
</g>
<path style=" stroke:none;fill-rule:nonzero;fill:rgb(100%,100%,100%);fill-opacity:1;" d="M 202.816406 198.972656 L 211.816406 198.972656 L 211.816406 212.972656 L 202.816406 212.972656 Z M 202.816406 198.972656 "/>
<g style="fill:rgb(0%,0%,100%);fill-opacity:1;">
  <use xlink:href="#glyph0-2" x="202.816406" y="210.111328"/>
</g>
<path style="fill:none;stroke-width:1.2;stroke-linecap:butt;stroke-linejoin:miter;stroke:rgb(0%,0%,0%);stroke-opacity:1;stroke-miterlimit:10;" d="M 241.28125 137.292969 L 250.378906 125.558594 "/>
<path style="fill:none;stroke-width:1.2;stroke-linecap:butt;stroke-linejoin:miter;stroke:rgb(100%,0%,0%);stroke-opacity:1;stroke-miterlimit:10;" d="M 250.378906 125.558594 L 259.480469 113.824219 "/>
<path style="fill:none;stroke-width:1.2;stroke-linecap:butt;stroke-linejoin:miter;stroke:rgb(0%,0%,0%);stroke-opacity:1;stroke-miterlimit:10;" d="M 241.28125 137.292969 L 264.75 155.488281 "/>
<path style="fill:none;stroke-width:1.2;stroke-linecap:butt;stroke-linejoin:miter;stroke:rgb(0%,0%,0%);stroke-opacity:1;stroke-miterlimit:10;" d="M 241.28125 137.292969 L 217.8125 119.097656 "/>
<path style=" stroke:none;fill-rule:nonzero;fill:rgb(100%,100%,100%);fill-opacity:1;" d="M 250.480469 106.824219 L 269.480469 106.824219 L 269.480469 120.824219 L 250.480469 120.824219 Z M 250.480469 106.824219 "/>
<g style="fill:rgb(100%,0%,0%);fill-opacity:1;">
  <use xlink:href="#glyph0-3" x="250.480469" y="117.962891"/>
  <use xlink:href="#glyph0-4" x="259.925781" y="117.962891"/>
</g>
</g>
</svg>

<svg xmlns="http://www.w3.org/2000/svg" xmlns:xlink="http://www.w3.org/1999/xlink" width="300pt" height="300pt" viewBox="0 0 300 300"><defs><symbol overflow="visible"><path d="M.594 2.125V-8.47h6V2.126zm.672-.672h4.671V-7.78h-4.67zm0 0"/></symbol><symbol overflow="visible" id="a"><path d="M1.172-8.75h5.03v1H2.36v2.578h3.468v1h-3.47V0H1.173zm0 0"/></symbol><symbol overflow="visible" id="b"><path d="M1.172-8.75h1.594l3.89 7.313V-8.75h1.14V0H6.204L2.328-7.313V0H1.172zm0 0"/></symbol><symbol overflow="visible" id="c"><path d="M4.734-7.953c-.867 0-1.554.324-2.062.97-.5.635-.75 1.51-.75 2.624 0 1.094.25 1.965.75 2.61.508.637 1.195.953 2.062.953.852 0 1.532-.316 2.032-.953.507-.645.765-1.516.765-2.61 0-1.113-.257-1.988-.764-2.624-.5-.645-1.18-.97-2.032-.97zm0-.953c1.22 0 2.192.414 2.922 1.234.74.824 1.11 1.93 1.11 3.313 0 1.376-.37 2.477-1.11 3.298C6.926-.24 5.953.17 4.734.17c-1.23 0-2.214-.41-2.953-1.234C1.04-1.882.673-2.984.673-4.36c0-1.382.367-2.488 1.11-3.312.738-.82 1.722-1.234 2.952-1.234zm0 0"/></symbol><symbol overflow="visible" id="d"><path d="M1.172-8.75H2.36v3.594h4.296V-8.75h1.188V0H6.656v-4.172H2.36V0H1.17zm0 0"/></symbol></defs><g><path fill="#fff" d="M0 0h300v300H0z"/><path d="M36.855 120.066l7.02 13.086" stroke-width="1.2" stroke="#3cc" stroke-miterlimit="10" fill="none"/><path d="M43.875 133.152l7.02 13.086" stroke-width="1.2" stroke="#000" stroke-miterlimit="10" fill="none"/><path d="M29.855 113.066h7v14h-7zm0 0" fill="#fff"/><use xlink:href="#a" x="29.855" y="124.205" fill="#3cc"/><path d="M50.895 146.238l-15.645 25.24M55.27 152.44l-12.516 20.193M80.574 147.164l-29.68-.926M35.25 171.477l14.04 26.168M49.29 197.645l29.68.93M52.473 190.754l23.746.742M78.97 198.574l7.018 13.082" stroke-width="1.2" stroke="#000" stroke-miterlimit="10" fill="none"/><path d="M85.988 211.656l7.02 13.086" stroke-width="1.2" stroke="#3cc" stroke-miterlimit="10" fill="none"/><path d="M78.97 198.574l15.643-25.242" stroke-width="1.2" stroke="#000" stroke-miterlimit="10" fill="none"/><path d="M90.008 217.742h7v14h-7zm0 0" fill="#fff"/><use xlink:href="#a" x="90.008" y="228.881" fill="#3cc"/><path d="M94.613 173.332l-14.04-26.168M87.05 174.02l-11.23-20.938M80.574 147.164l15.645-25.242M96.22 121.922l-5.615-13.746" stroke-width="1.2" stroke="#000" stroke-miterlimit="10" fill="none"/><path d="M90.605 108.176L84.992 94.43" stroke-width="1.2" stroke="#00f" stroke-miterlimit="10" fill="none"/><path d="M125.836 119.742l-29.617 2.18M122.36 112.992l-23.692 1.742" stroke-width="1.2" stroke="#000" stroke-miterlimit="10" fill="none"/><path d="M84.992 94.43l11.34-9.586" stroke-width="1.2" stroke="#00f" stroke-miterlimit="10" fill="none"/><path d="M96.332 84.844l11.34-9.586" stroke-width="1.2" stroke="#000" stroke-miterlimit="10" fill="none"/><path d="M91.773 97.848l9.07-7.668" stroke-width="1.2" stroke="#00f" stroke-miterlimit="10" fill="none"/><path d="M100.844 90.18l9.07-7.668" stroke-width="1.2" stroke="#000" stroke-miterlimit="10" fill="none"/><path d="M80.992 87.43h9v14h-9zm0 0" fill="#fff"/><use xlink:href="#b" x="80.992" y="98.568" fill="#00f"/><path d="M107.672 75.258l12.62 7.82" stroke-width="1.2" stroke="#000" stroke-miterlimit="10" fill="none"/><path d="M120.293 83.078l12.62 7.824M132.914 90.902l-3.54 14.418" stroke-width="1.2" stroke="#f00" stroke-miterlimit="10" fill="none"/><path d="M129.375 105.32l-3.54 14.422" stroke-width="1.2" stroke="#000" stroke-miterlimit="10" fill="none"/><path d="M127.914 83.902h10v14h-10zm0 0" fill="#fff"/><use xlink:href="#c" x="127.914" y="95.041" fill="#f00"/><path d="M125.836 119.742l19.172 22.676M145.008 142.418l-10.055 27.945M145.008 142.418l29.222-5.262M149.168 148.77l23.38-4.21M134.953 170.363l19.172 22.676M142.207 168.117l15.336 18.145M154.125 193.04l29.227-5.263M183.352 187.777l5.027-13.972" stroke-width="1.2" stroke="#000" stroke-miterlimit="10" fill="none"/><path d="M188.38 173.805l5.022-13.973M206.816 205.973l-11.73-9.098" stroke-width="1.2" stroke="#00f" stroke-miterlimit="10" fill="none"/><path d="M195.086 196.875l-11.734-9.098" stroke-width="1.2" stroke="#000" stroke-miterlimit="10" fill="none"/><path d="M208.754 198.633l-9.387-7.28" stroke-width="1.2" stroke="#00f" stroke-miterlimit="10" fill="none"/><path d="M199.367 191.352l-9.387-7.278" stroke-width="1.2" stroke="#000" stroke-miterlimit="10" fill="none"/><path d="M193.402 159.832l-9.586-11.336" stroke-width="1.2" stroke="#00f" stroke-miterlimit="10" fill="none"/><path d="M183.816 148.496l-9.586-11.34" stroke-width="1.2" stroke="#000" stroke-miterlimit="10" fill="none"/><path d="M193.402 159.832l14.844.465" stroke-width="1.2" stroke="#00f" stroke-miterlimit="10" fill="none"/><path d="M208.246 160.297l14.84.465" stroke-width="1.2" stroke="#000" stroke-miterlimit="10" fill="none"/><path d="M189.402 152.832h9v14h-9zm0 0" fill="#fff"/><use xlink:href="#b" x="189.402" y="163.971" fill="#00f"/><path d="M223.086 160.762l4.144 14.258" stroke-width="1.2" stroke="#000" stroke-miterlimit="10" fill="none"/><path d="M227.23 175.02l4.145 14.257" stroke-width="1.2" stroke="#00f" stroke-miterlimit="10" fill="none"/><path d="M217.207 165.563l3.313 11.406" stroke-width="1.2" stroke="#000" stroke-miterlimit="10" fill="none"/><path d="M220.52 176.97l3.316 11.405" stroke-width="1.2" stroke="#00f" stroke-miterlimit="10" fill="none"/><path d="M223.086 160.762l18.195-23.47" stroke-width="1.2" stroke="#000" stroke-miterlimit="10" fill="none"/><path d="M231.375 189.277l-24.56 16.696" stroke-width="1.2" stroke="#00f" stroke-miterlimit="10" fill="none"/><path d="M227.375 182.277h9v14h-9zm0 0" fill="#fff"/><use xlink:href="#b" x="227.375" y="193.416" fill="#00f"/><path d="M202.816 198.973h9v14h-9zm0 0" fill="#fff"/><use xlink:href="#b" x="202.816" y="210.111" fill="#00f"/><path d="M241.28 137.293l9.1-11.734" stroke-width="1.2" stroke="#000" stroke-miterlimit="10" fill="none"/><path d="M250.38 125.56l9.1-11.736" stroke-width="1.2" stroke="#f00" stroke-miterlimit="10" fill="none"/><path d="M241.28 137.293l23.47 18.195M241.28 137.293l-23.468-18.195" stroke-width="1.2" stroke="#000" stroke-miterlimit="10" fill="none"/><path d="M250.48 106.824h19v14h-19zm0 0" fill="#fff"/><g fill="#f00"><use xlink:href="#c" x="250.48" y="117.963"/><use xlink:href="#d" x="259.926" y="117.963"/></g></g></svg>
